suite-common/icons/assets/icons/percent.svg

<svg xmlns="http://www.w3.org/2000/svg" viewBox="0 0 16 16">
  <path fill-rule="evenodd" d="M4.411 2.292c-.916.106-1.762.82-2.036 1.719a3 3 0 0 0-.088 1.062c.125.982.841 1.801 1.82 2.081.268.077.987.084 1.248.013a2.52 2.52 0 0 0 1.783-1.719c.065-.214.072-.273.071-.661-.001-.477-.037-.695-.168-1.002a2.7 2.7 0 0 0-.811-1.029 3.1 3.1 0 0 0-.873-.42 3.6 3.6 0 0 0-.946-.044m7.835.51c-.06.018-.387.319-1.066.983-1.425 1.39-7.706 7.692-8.042 8.068-.362.405-.395.472-.361.718.032.221.094.352.222.464a.68.68 0 0 0 .435.19c.241.031.312-.005.713-.363.377-.337 6.982-6.92 8.176-8.15.508-.522.839-.884.864-.943.046-.112.052-.338.011-.499-.035-.138-.207-.346-.345-.417-.12-.061-.477-.091-.607-.051M5.174 3.848c.082.039.205.127.275.197.5.5.351 1.311-.297 1.617-.157.074-.206.084-.405.084-.189 0-.252-.012-.379-.071a1.16 1.16 0 0 1-.504-.482c-.087-.159-.091-.179-.091-.446 0-.255.007-.293.075-.421q.305-.582.939-.558c.193.007.269.023.387.08M10.827 8.8c-.357.045-.838.267-1.173.541a2.9 2.9 0 0 0-.599.738 4 4 0 0 0-.179.429c-.085.246-.087.263-.088.719-.001.386.008.496.05.64.134.451.329.794.625 1.102a2.52 2.52 0 0 0 1.403.74c.245.042.741.015 1.008-.054a2.52 2.52 0 0 0 1.785-1.783c.047-.169.057-.281.057-.632 0-.389-.006-.448-.072-.665-.261-.853-.919-1.505-1.737-1.721-.217-.058-.815-.087-1.08-.054m.589 1.467a1 1 0 0 1 .728.56c.075.156.083.198.083.427 0 .233-.008.268-.088.431-.098.2-.277.378-.478.478-.11.054-.167.063-.408.063-.252.001-.294-.007-.431-.074a1.15 1.15 0 0 1-.502-.544 1.16 1.16 0 0 1-.014-.674 1 1 0 0 1 .721-.657.7.7 0 0 1 .389-.01"/>
</svg>

<svg xmlns="http://www.w3.org/2000/svg" viewBox="0 0 16 16"><path d="M4.411 2.292 C 3.495 2.398,2.649 3.112,2.375 4.011 C 2.289 4.294,2.249 4.774,2.287 5.073 C 2.412 6.055,3.128 6.874,4.107 7.154 C 4.375 7.231,5.094 7.238,5.355 7.167 C 6.229 6.926,6.876 6.302,7.138 5.448 C 7.203 5.234,7.210 5.175,7.209 4.787 C 7.208 4.310,7.172 4.092,7.041 3.785 C 6.880 3.407,6.570 3.013,6.230 2.756 C 6.028 2.602,5.592 2.393,5.357 2.336 C 5.144 2.284,4.671 2.262,4.411 2.292 M12.246 2.802 C 12.186 2.820,11.859 3.121,11.180 3.785 C 9.755 5.175,3.474 11.477,3.138 11.853 C 2.776 12.258,2.743 12.325,2.777 12.571 C 2.809 12.792,2.871 12.923,2.999 13.035 C 3.138 13.158,3.234 13.200,3.434 13.225 C 3.675 13.256,3.746 13.220,4.147 12.862 C 4.524 12.525,11.129 5.942,12.323 4.712 C 12.831 4.190,13.162 3.828,13.187 3.769 C 13.233 3.657,13.239 3.431,13.198 3.270 C 13.163 3.132,12.991 2.924,12.853 2.853 C 12.733 2.792,12.376 2.762,12.246 2.802 M5.174 3.848 C 5.256 3.887,5.379 3.975,5.449 4.045 C 5.949 4.545,5.800 5.356,5.152 5.662 C 4.995 5.736,4.946 5.746,4.747 5.746 C 4.558 5.746,4.495 5.734,4.368 5.675 C 4.166 5.581,3.975 5.398,3.864 5.193 C 3.777 5.034,3.773 5.014,3.773 4.747 C 3.773 4.492,3.780 4.454,3.848 4.326 C 4.052 3.937,4.363 3.753,4.787 3.768 C 4.980 3.775,5.056 3.791,5.174 3.848 M10.827 8.800 C 10.470 8.845,9.989 9.067,9.654 9.341 C 9.453 9.506,9.180 9.842,9.055 10.079 C 9.004 10.177,8.923 10.370,8.876 10.508 C 8.791 10.754,8.789 10.771,8.788 11.227 C 8.787 11.613,8.796 11.723,8.838 11.867 C 8.972 12.318,9.167 12.661,9.463 12.969 C 9.840 13.361,10.328 13.618,10.866 13.709 C 11.111 13.751,11.607 13.724,11.874 13.655 C 12.735 13.433,13.418 12.751,13.659 11.872 C 13.706 11.703,13.716 11.591,13.716 11.240 C 13.716 10.851,13.710 10.792,13.644 10.575 C 13.383 9.722,12.725 9.070,11.907 8.854 C 11.690 8.796,11.092 8.767,10.827 8.800 M11.416 10.267 C 11.741 10.328,12.001 10.529,12.144 10.827 C 12.219 10.983,12.227 11.025,12.227 11.254 C 12.227 11.487,12.219 11.522,12.139 11.685 C 12.041 11.885,11.862 12.063,11.661 12.163 C 11.551 12.217,11.494 12.226,11.253 12.226 C 11.001 12.227,10.959 12.219,10.822 12.152 C 10.620 12.053,10.396 11.811,10.320 11.608 C 10.249 11.421,10.243 11.112,10.306 10.934 C 10.426 10.595,10.681 10.363,11.027 10.277 C 11.197 10.235,11.242 10.234,11.416 10.267 " stroke="none" fill-rule="evenodd" fill="black"></path></svg>
